X: 33431
T: Quinn's Bush
R: reel
M: 4/4
K: Adorian
BG|EAAG ABcd|eAcA eAcA|G2 GF GABc|dGBG dGAG|
EAAG ABcd|eAcA GABd|cBcd (3efg fa|gedB A2 BG|
EAAG ABcd|eAcA eABA|G2 GF GABG|(3EFG DB, G,A,B,D|
EAAG ABcd|eAcA GABd|cBcd (3efg fa|gedB A2||
|:Bd|ea3 ea^ga|baag edBc|dg3 dgBg|eaaf gedg|
[1 ea3 ea^ga|bagf g2 ed|^cdef gbaf|gedB A2:|
[2 eaag efgb|aged cAGB|ABcd (3efg fa|gedB A2||

